X:2
T:English Duty - The General ThFife.02, The
T:English Duty ThFife.01, The
T:General ThFife.02, The
B:Thompson, C. & Thompson, S., 'The Compleat Tutor for the Fife', London, c.1765-1780.
S:Digitised by National Library of Scotland at: https://archive.org/details/nlsmusic
Z:vmp Roger Hare, 2019.
M:2/4
L:1/8
Q:1/4=120
K:G
|: Gd/e/ dc/B/ | cd B2 | cBAG | AD G2 | !trill!AG/A/ !trill!BA/B/ | !trill!cB/c/ de |
d2 e/d/c/B/ | Ac/B/ cd | G2 G/A/B/c/ | dd e/d/c/B/ | A>c BA/G/ | dd A/c/B/A/ |
G2 AA/G/ | BB/A/ AA/G/ | B>A G/A/B/c/ | dd e/d/c/B/ | A/c/B/A/ G2 :|

